X:1
T:Strangelove.mid
M:4/4
L:1/8
K:C
zzzzzzzzzzzzzzzz | zzzzzzzzzzzzz | zzzzzzzzG2zzz | zzzzzzzzzzzzz | zzzzzzzzzzzzz | zzzzzzzzzzzzz | E2zzzzE2zzzE2 | zzE2zzzzE2zzz | E2zzC2zzzzC2z | zzC2zzD2zzzD2 | zzzB1zE2zzzzE2zzzE2zzE2zzzzE2 | zzzE2zzC2zzzC2zzzzzD2zzzD2zzz | B1zE2zzzzzE2z | zE2zzzzzzE2zz | C2zzzzzzzC2zz | D2zzzD2zzzB1z | E2zzzE2zzzzzD2zzzD2zzzD2zzE2z | zzE2zzzE2zzzz | zzzzD2zzzE2zz | B1zD2zE2zzzzz | zzzA1zzzD2zzz | zzD2zzE2zzzB1 | zD2zE2zzzzzzz | zA1zzzD2zzzzD2zzzE2zzzB1zD2zE2zzzzzzzzA1zzzzz | zzD2zzE2zzzzz | zzE2zzA1zzzzz | zzD2zG2zzzzG2 | zzzG2zzC2zzzz | zzzzzzzzzzzzz | zzzzzzzzzzzzz | zzzzzzzzzzzzz | E2zzzzE2zzzE2 | zzE2zzzzE2zzz | E2zzzzzzC2zzz | C2zD2zzzzD2zz | zB1zzE2zzzzE2 | zzzE2zzE2zzzz | E2zzzE2zzzzzz | C2zzzC2zD2zzz | zD2zzB1zzE2zz | zzE2zzzE2zzzz | zzE2zzzE2zzC2 | zzzC2zzzC2zD2 | zzzD2zzzB1zzE2zzzE2zzzzzD2zzz | D2zzzD2zzE2zz | zE2zzzE2zzzzz | zzD2zzzzzzE2z | zE2zzzzE2zC2z | zC2zC2zzA1zzz | zzG2zzzzE2zzE2zzzzE2zC2zzC2zC2zzA1zzzzzG2zE2z | zB1zD2zE2zzzz | zzzzA1zzzD2zz | zzzD2zzE2zzzB1zD2zE2zzzzzzzzA1zzzD2zzzzD2zzzE2zzzB1zD2zE2zzzz | zzzzA1zzzzzzz | D2zzE2zzB1zD2 | zE2zzzzzzzzA1 | zzzD2zzzzzD2z | E2zzzB1zD2zE2 | zzzzzzzzA1zzz | D2zzzzD2zzzE2 | zzzB1zD2zE2zz | zzzzzzA1zzzzz | zzD2zE2zzB1zD2zE2zzzzzzzzA1zz | zD2zzzzzD2zzE2zzzB1zD2zE2zzzz | zzzzA1zzzD2zz | zzD2zzzE2zzzB1zD2zE2zzzzzzzzA1zzzzzzzD2zzE2zz | B1zD2zE2zzzzz | zzzA1zzzD2zzz | zzD2zE2zzzB1z | D2zE2zzzzzzzz | A1zzzD2zzzzD2 | zzzE2zzzB1zD2 | zE2zzzzzzzzA1 | zzzzzzzD2zz
